public/assets/logo1.svg

<svg width="134" height="33" viewBox="0 0 134 33" fill="none" xmlns="http://www.w3.org/2000/svg">
<path fill-rule="evenodd" clip-rule="evenodd" d="M0.5 16.203C10.799 16.203 16.703 10.299 16.703 0C16.703 10.299 22.6071 16.203 32.9061 16.203C22.6071 16.203 16.703 22.1071 16.703 32.4061C16.703 22.1071 10.799 16.203 0.5 16.203Z" fill="#0E0E0E"/>
<path d="M36.9568 22.2791L41.3863 8.99053H45.3965L49.8261 22.2791H46.8731L45.9799 19.5448H40.803L39.9098 22.2791H36.9568ZM41.4592 17.3756H45.3236L44.1935 13.9851L43.4461 11.5607H43.3367L42.5894 13.9851L41.4592 17.3756Z" fill="#0E0E0E"/>
<path d="M54.7691 22.4431C53.7969 22.4431 52.9463 22.2365 52.2171 21.8233C51.488 21.398 50.9229 20.8086 50.5219 20.0552C50.1208 19.2896 49.9203 18.4025 49.9203 17.3938C49.9203 16.373 50.1208 15.4859 50.5219 14.7325C50.935 13.9669 51.5123 13.3775 52.2536 12.9643C52.9949 12.539 53.8637 12.3263 54.8602 12.3263C55.6987 12.3263 56.4461 12.4843 57.1023 12.8003C57.7586 13.1162 58.275 13.5537 58.6517 14.1127C59.0406 14.6717 59.2533 15.3219 59.2897 16.0632H56.6649C56.5798 15.5528 56.3671 15.17 56.0269 14.9148C55.6866 14.6474 55.2734 14.5137 54.7873 14.5137C54.0825 14.5137 53.5478 14.775 53.1832 15.2976C52.8187 15.8201 52.6364 16.5189 52.6364 17.3938C52.6364 18.3539 52.8308 19.0709 53.2197 19.5448C53.6207 20.0187 54.1372 20.2557 54.7691 20.2557C55.3403 20.2557 55.7899 20.1099 56.118 19.8182C56.4583 19.5266 56.6527 19.1438 56.7013 18.6698H59.308C59.2715 19.4354 59.0528 20.1038 58.6517 20.675C58.2629 21.234 57.7343 21.6714 57.0659 21.9874C56.3975 22.2912 55.6319 22.4431 54.7691 22.4431Z" fill="#0E0E0E"/>
<path d="M60.5884 22.2791V12.5086H63.1768L63.268 14.2768H63.3773C63.6204 13.6327 64.0153 13.1466 64.5622 12.8185C65.109 12.4904 65.7106 12.3263 66.3668 12.3263C67.0473 12.3263 67.6671 12.4904 68.2261 12.8185C68.7851 13.1466 69.1983 13.7117 69.4656 14.5137H69.6115C69.8423 13.7846 70.2494 13.2378 70.8328 12.8732C71.4282 12.5086 72.0966 12.3263 72.8379 12.3263C73.4698 12.3263 74.0349 12.46 74.5331 12.7274C75.0314 12.9947 75.4263 13.4261 75.718 14.0216C76.0218 14.6049 76.1737 15.3887 76.1737 16.373V22.2791H73.4941V16.9564C73.4941 16.13 73.3544 15.5163 73.0749 15.1153C72.8075 14.7143 72.37 14.5137 71.7624 14.5137C71.1183 14.5137 70.614 14.7507 70.2494 15.2247C69.897 15.6864 69.7208 16.2272 69.7208 16.847V22.2791H67.0412V16.9564C67.0412 16.13 66.9015 15.5163 66.622 15.1153C66.3546 14.7143 65.9172 14.5137 65.3095 14.5137C64.6533 14.5137 64.149 14.7507 63.7966 15.2247C63.4442 15.6864 63.268 16.2272 63.268 16.847V22.2791H60.5884Z" fill="#0E0E0E"/>
<path d="M82.2909 22.4431C81.2701 22.4431 80.3951 22.2365 79.666 21.8233C78.949 21.4102 78.3961 20.8329 78.0072 20.0916C77.6183 19.3382 77.4239 18.4632 77.4239 17.4668C77.4239 16.4095 77.6183 15.4981 78.0072 14.7325C78.4082 13.9669 78.9672 13.3775 79.6842 12.9643C80.4012 12.539 81.2397 12.3263 82.1997 12.3263C83.3299 12.3263 84.2596 12.5755 84.9887 13.0737C85.7178 13.5598 86.2404 14.2342 86.5563 15.0971C86.8723 15.9477 86.9756 16.9138 86.8662 17.9954H80.067C80.0549 18.7731 80.2554 19.3747 80.6686 19.8C81.0817 20.2132 81.6225 20.4198 82.2909 20.4198C82.8013 20.4198 83.2327 20.3104 83.5851 20.0916C83.9497 19.8608 84.1806 19.5569 84.2778 19.1802H86.8115C86.7265 19.8364 86.4773 20.4076 86.0642 20.8937C85.6631 21.3798 85.1406 21.7626 84.4965 22.0421C83.8525 22.3094 83.1172 22.4431 82.2909 22.4431ZM82.1997 14.3497C81.5921 14.3497 81.1 14.5259 80.7232 14.8783C80.3465 15.2186 80.1339 15.6864 80.0852 16.2819H84.2413C84.2049 15.6257 83.9922 15.1396 83.6033 14.8236C83.2266 14.5077 82.7588 14.3497 82.1997 14.3497Z" fill="#0E0E0E"/>
<path d="M97.9295 22.4431C96.6049 22.4431 95.4382 22.1758 94.4296 21.6411C93.4331 21.1064 92.6554 20.3286 92.0964 19.3078C91.5374 18.287 91.2579 17.0597 91.2579 15.6257C91.2579 14.1917 91.5374 12.9704 92.0964 11.9618C92.6554 10.941 93.4331 10.1632 94.4296 9.62853C95.4382 9.09383 96.6049 8.82648 97.9295 8.82648C99.0718 8.82648 100.086 9.02699 100.974 9.42801C101.861 9.81689 102.578 10.3698 103.125 11.0868C103.671 11.7916 104.006 12.618 104.127 13.5659H101.247C101.089 12.8853 100.712 12.3324 100.117 11.9071C99.5336 11.4696 98.8044 11.2509 97.9295 11.2509C96.7871 11.2509 95.8757 11.6154 95.1952 12.3446C94.5268 13.0737 94.1926 14.1674 94.1926 15.6257C94.1926 17.0961 94.5268 18.1959 95.1952 18.925C95.8757 19.6542 96.7871 20.0187 97.9295 20.0187C98.7801 20.0187 99.5093 19.8061 100.117 19.3807C100.724 18.9554 101.101 18.3903 101.247 17.6855H104.127C104.018 18.6334 103.684 19.4658 103.125 20.1828C102.566 20.8998 101.836 21.4588 100.937 21.8598C100.05 22.2487 99.0475 22.4431 97.9295 22.4431Z" fill="#0E0E0E"/>
<path d="M109.947 22.4431C108.975 22.4431 108.118 22.2426 107.377 21.8416C106.635 21.4405 106.058 20.8633 105.645 20.1099C105.244 19.3564 105.044 18.4511 105.044 17.3938C105.044 16.3852 105.238 15.5042 105.627 14.7507C106.016 13.9851 106.575 13.3897 107.304 12.9643C108.033 12.539 108.914 12.3263 109.947 12.3263C110.919 12.3263 111.77 12.5268 112.499 12.9279C113.24 13.3289 113.811 13.9122 114.212 14.6778C114.626 15.4312 114.832 16.3366 114.832 17.3938C114.832 18.4025 114.638 19.2896 114.249 20.0552C113.86 20.8086 113.301 21.398 112.572 21.8233C111.855 22.2365 110.98 22.4431 109.947 22.4431ZM109.929 20.2739C110.585 20.2739 111.114 20.037 111.515 19.563C111.916 19.0891 112.116 18.366 112.116 17.3938C112.116 16.4217 111.922 15.6986 111.533 15.2247C111.144 14.7507 110.615 14.5137 109.947 14.5137C109.279 14.5137 108.744 14.7507 108.343 15.2247C107.942 15.6986 107.741 16.4217 107.741 17.3938C107.741 18.3539 107.936 19.0769 108.325 19.563C108.726 20.037 109.26 20.2739 109.929 20.2739Z" fill="#0E0E0E"/>
<path d="M116.174 22.2791V12.5086H118.599L118.708 14.0763H118.799C119.018 13.4443 119.364 13.0069 119.838 12.7638C120.324 12.5086 120.877 12.381 121.497 12.381H122.044V14.8965H121.442C120.543 14.8965 119.893 15.0971 119.492 15.4981C119.091 15.887 118.878 16.446 118.854 17.1751V22.2791H116.174Z" fill="#0E0E0E"/>
<path d="M123.091 25.3232V12.5086H125.679L125.77 14.2039H125.916C126.147 13.6327 126.53 13.177 127.064 12.8367C127.611 12.4965 128.261 12.3263 129.015 12.3263C130.181 12.3263 131.123 12.7517 131.84 13.6023C132.569 14.4408 132.934 15.7047 132.934 17.3938C132.934 19.0709 132.569 20.3347 131.84 21.1854C131.123 22.036 130.181 22.4613 129.015 22.4613C128.261 22.4613 127.611 22.2912 127.064 21.9509C126.53 21.5985 126.147 21.1428 125.916 20.5838H125.77V25.3232H123.091ZM128.012 20.2922C128.668 20.2922 129.191 20.0613 129.58 19.5995C129.981 19.1255 130.181 18.3903 130.181 17.3938C130.181 16.3974 129.981 15.6682 129.58 15.2064C129.191 14.7325 128.668 14.4955 128.012 14.4955C127.514 14.4955 127.101 14.611 126.773 14.8419C126.445 15.0728 126.202 15.3766 126.044 15.7533C125.886 16.1178 125.807 16.5067 125.807 16.9199V17.8678C125.807 18.281 125.886 18.6759 126.044 19.0526C126.202 19.4172 126.445 19.7149 126.773 19.9458C127.101 20.1767 127.514 20.2922 128.012 20.2922Z" fill="#0E0E0E"/>
</svg>

<svg xmlns="http://www.w3.org/2000/svg" width="134" height="33" fill="none" viewBox="0 0 134 33"><path fill="#0e0e0e" fill-rule="evenodd" d="M.5 16.203c10.299 0 16.203-5.904 16.203-16.203 0 10.299 5.904 16.203 16.203 16.203-10.299 0-16.203 5.904-16.203 16.203 0-10.299-5.904-16.203-16.203-16.203" clip-rule="evenodd"/><path fill="#0e0e0e" d="m36.957 22.28 4.43-13.29h4.01l4.43 13.29h-2.954l-.893-2.735h-5.177l-.893 2.734zm4.502-4.904h3.865l-1.13-3.39-.748-2.425h-.11l-.747 2.424zm13.311 5.067q-1.46 0-2.553-.62a4.4 4.4 0 0 1-1.695-1.768q-.602-1.148-.602-2.661 0-1.531.602-2.661a4.33 4.33 0 0 1 1.732-1.769q1.111-.638 2.606-.638 1.258 0 2.242.474.985.474 1.55 1.313.583.838.638 1.95h-2.625q-.128-.765-.638-1.148-.51-.402-1.24-.401-1.057 0-1.604.784-.546.782-.547 2.096 0 1.44.584 2.15.6.712 1.55.712.855 0 1.348-.438.51-.437.583-1.148h2.607q-.054 1.148-.656 2.005-.584.838-1.586 1.312-1.003.456-2.297.456m5.819-.163v-9.771h2.589l.091 1.768h.11q.363-.966 1.184-1.458a3.44 3.44 0 0 1 1.805-.493q1.02 0 1.86.492.837.493 1.239 1.696h.146q.345-1.094 1.22-1.64a3.76 3.76 0 0 1 2.006-.548q.948 0 1.695.401.747.402 1.185 1.295.456.875.456 2.351v5.906h-2.68v-5.323q0-1.24-.42-1.84-.4-.603-1.312-.602-.966 0-1.513.71-.528.693-.528 1.623v5.432h-2.68v-5.323q0-1.24-.419-1.84-.401-.603-1.312-.602-.985 0-1.513.71-.53.693-.529 1.623v5.432zm21.702.163q-1.53 0-2.624-.62a4.2 4.2 0 0 1-1.659-1.731q-.583-1.131-.583-2.625 0-1.586.583-2.734a4.3 4.3 0 0 1 1.677-1.769q1.076-.638 2.516-.638 1.695 0 2.789.748 1.093.729 1.567 2.023.475 1.276.31 2.898h-6.799q-.019 1.167.602 1.805.62.62 1.622.62.766 0 1.294-.328.547-.347.693-.912h2.533a3.23 3.23 0 0 1-.747 1.714q-.6.73-1.567 1.148-.966.4-2.206.401m-.09-8.093q-.912 0-1.477.528-.565.51-.638 1.404h4.156q-.054-.984-.638-1.458-.564-.474-1.403-.474m15.729 8.093q-1.988 0-3.5-.802a5.7 5.7 0 0 1-2.334-2.333q-.838-1.531-.838-3.682 0-2.152.838-3.664a5.7 5.7 0 0 1 2.334-2.333q1.512-.803 3.5-.803 1.712 0 3.044.602 1.33.584 2.151 1.659.82 1.057 1.002 2.479h-2.88q-.237-1.02-1.13-1.659-.875-.656-2.187-.656-1.714 0-2.735 1.094-1.002 1.093-1.002 3.28 0 2.206 1.002 3.3 1.02 1.095 2.735 1.094 1.276 0 2.187-.638t1.13-1.695h2.88a4.9 4.9 0 0 1-1.002 2.497q-.839 1.075-2.188 1.677-1.331.583-3.007.583m12.017 0q-1.458 0-2.57-.601a4.24 4.24 0 0 1-1.732-1.732q-.601-1.13-.601-2.716 0-1.514.583-2.643a4.25 4.25 0 0 1 1.677-1.787q1.094-.638 2.643-.638 1.458 0 2.552.602a4.1 4.1 0 0 1 1.713 1.75q.62 1.13.62 2.716 0 1.514-.583 2.661a4.3 4.3 0 0 1-1.677 1.768q-1.076.62-2.625.62m-.018-2.17q.984 0 1.586-.71.601-.71.601-2.17 0-1.457-.583-2.168-.584-.711-1.586-.711t-1.604.71-.602 2.17q0 1.44.584 2.169.601.71 1.604.71m6.245 2.007v-9.771h2.425l.109 1.567h.091q.328-.948 1.039-1.312.729-.383 1.659-.383h.547v2.515h-.602q-1.349 0-1.95.602-.602.584-.638 1.677v5.104zm6.917 3.043V12.51h2.588l.091 1.695h.146a2.86 2.86 0 0 1 1.148-1.367q.82-.51 1.951-.51 1.75 0 2.825 1.275 1.094 1.258 1.094 3.792 0 2.515-1.094 3.791-1.076 1.276-2.825 1.276-1.13 0-1.951-.51a3 3 0 0 1-1.148-1.367h-.146v4.74zm4.921-5.03q.984 0 1.568-.694.601-.711.601-2.205t-.601-2.188q-.584-.71-1.568-.71-.747 0-1.239.346a2.07 2.07 0 0 0-.729.911 2.9 2.9 0 0 0-.237 1.167v.948q0 .62.237 1.185.237.546.729.893.492.346 1.239.346"/></svg>
